X:483
T:Reel 483
M:4/4
K:Ador
L:1/8
GF|EA, (3CB,A, G,A,B,D|CA,A,A, D2GD| (3EFE CB, G,A,B,D|| (3CB,A, B,C A,2:||2A,B,CD E2|AF| (3GFE cA BGAG| (3cBc BG AGED| (3CB,C EA,  (3CEC A,C| (3B,CB, G,B, A,2AB| (3cBc  (3BAG AGED|C>C (3B,CD EDEF|GFGA GBAF|ECDB, A,2|
